X:42
T:Polska ur Petter Dufvas notbok (Ma6-42)
R:Polska
O:Verkelbäck, Småland
B:Petter Dufvas notbok
S:Petter Dufva
N:Smus Ma6 bild 44
M:3/4
L:1/8
K:D
A2 d2 fa|g2 ec eg|f2 d4|A2 d2 fa|g2 ec eg|f2 d4:|
|:fgagfa|g2 e4|efgfeg|f2 d4|fgagfa|g2 e4|
efgfeg|f2 d4|A2 d2 fa|g2 ec ec|d2 D4:|

